X:43
T:43 A Waterloo Dance
C:Shoosmith MS
I:abc2nwc
M:2/4
L:1/16
K:D
AG|F2dB A2fe|d2d2 d2cd|e2e2 dcBc|defd A2AG|
 F2dB A2fe|d2d2 d2cd|e2e2 dcBc|d6:|
cd|e2ec a2af|e2ec A2A2|^GABc dBed|d4c2cd|
e2ec a2af|e2ec A2A2|^GABc dBAG|A4A2:|
fg|a6f2|b2a2 g2f2|e2e2 edef|d2e2 f2g2|
a6f2| b2a2 g2f2|e2e2 edef|d6:|

